X:137
T:The Little Heathy Hill
B:Terry "Cuz" Teahan "Sliabh Luachra on Parade" 1980
Z:Patrick Cavanagh
M:4/4
L:1/8
R:Set Dance
K:G
|: c>d | e>f e>d c2 B/c/B | A>c B>A G2 E>G | A>c A>G A>D E>G | A2 A>B c2 c>d | 
e>f e>d c2 B/c/B | A>c B>A G2 E>G | A>B A>G E>D E>G | A2 A>B A2 :| 
|: E2 | A>B c>d e2 e>f | g2 g>e d>B G>c | e>f e>d c2 B/c/B | A>G E>F G2 c>d | 
e>f e>d c2 B/c/B | A>c B>A G2 E>G | A>c A>G E>D E>G | A2 A>B A2 c>d | 
e>f e>d c2 B/c/B | A>c B>A G2 E>G | A>c A>G E>D E>G | A2 A>B A2 :|| 

